docs/local/img/index-main/logo.svg

<svg width="736" height="149" viewBox="0 0 736 149" fill="none" xmlns="http://www.w3.org/2000/svg">
<path fill-rule="evenodd" clip-rule="evenodd" d="M0 144.827H52.8729C104.709 144.827 127.222 111.311 127.222 72.4136C127.222 39.9319 112.352 0 52.8729 0H0V144.827ZM40.4805 109.224V35.6011C40.481 35.3776 40.5698 35.1633 40.7276 35.0052C40.8854 34.8471 41.0993 34.7581 41.3225 34.7576H45.015C85.0744 34.7576 85.4954 64.3447 85.4954 72.4136C85.4954 79.8619 85.0819 110.068 45.015 110.068H41.3225C41.0993 110.067 40.8854 109.978 40.7276 109.82C40.5698 109.662 40.481 109.448 40.4805 109.224ZM139.971 144.827H226.712V110.068H181.286C181.063 110.067 180.849 109.978 180.691 109.82C180.533 109.662 180.444 109.448 180.444 109.224V87.7394C180.444 87.5159 180.533 87.3016 180.691 87.1435C180.849 86.9854 181.063 86.8964 181.286 86.8959H222.369V55.0348H181.286C181.063 55.0343 180.849 54.9453 180.691 54.7872C180.533 54.6291 180.444 54.4148 180.444 54.1913V35.6011C180.444 35.3776 180.533 35.1633 180.691 35.0052C180.849 34.8471 181.063 34.7581 181.286 34.7576H226.705V0H139.971V144.827ZM240.427 144.827H280.908V99.9031C280.91 99.7222 280.971 99.5469 281.08 99.403C281.189 99.259 281.342 99.1539 281.515 99.1032C281.688 99.0524 281.873 99.0587 282.043 99.1211C282.212 99.1835 282.357 99.2987 282.456 99.4498L311.472 144.82H360.42L320.563 87.8007C320.49 87.695 320.442 87.574 320.422 87.447C320.403 87.3199 320.413 87.19 320.451 87.0673C320.489 86.9446 320.555 86.8322 320.643 86.7388C320.731 86.6454 320.84 86.5733 320.96 86.5281C334.391 81.5582 350.292 70.0745 350.292 43.4489C350.292 36.8273 348.64 0 300.312 0H240.42L240.427 144.827ZM280.908 64.3298V32.7046C280.908 32.4816 280.997 32.2678 281.154 32.1101C281.312 31.9523 281.525 31.8635 281.748 31.863H290.821C305.275 31.863 309.821 40.3462 309.821 48.4132C309.821 56.8982 305.275 65.1733 290.821 65.1733H281.748C281.637 65.1738 281.527 65.1524 281.424 65.1102C281.322 65.0681 281.228 65.0061 281.149 64.9277C281.071 64.8494 281.008 64.7562 280.965 64.6536C280.923 64.5511 280.901 64.441 280.9 64.3298H280.908ZM426.798 149C487.103 149 490.411 101.793 490.411 86.2754V0H449.92V85.4486C449.92 94.3443 448.269 114.207 426.791 114.207C405.313 114.207 403.659 94.3443 403.659 85.4486V0H363.178V86.2754C363.178 101.793 366.485 149 426.791 149H426.798ZM507.9 144.827H548.373V90.6359C548.374 90.4126 548.462 90.1987 548.62 90.0406C548.777 89.8826 548.991 89.7934 549.213 89.7924H590.297V56.4821H549.213C548.991 56.4816 548.777 56.3928 548.62 56.235C548.462 56.0773 548.374 55.8635 548.373 55.6404V35.6011C548.374 35.3779 548.462 35.1639 548.62 35.0059C548.777 34.8478 548.991 34.7586 549.213 34.7576H594.633V0H507.893L507.9 144.827ZM583.971 144.827H627.368L635.236 120.377C635.289 120.206 635.395 120.057 635.539 119.952C635.684 119.846 635.858 119.79 636.037 119.792H683.964C684.142 119.79 684.316 119.846 684.46 119.952C684.604 120.057 684.71 120.206 684.763 120.377L692.63 144.827H736L684.576 0H635.428L583.971 144.827ZM660.809 37.1469L676.191 86.8383C676.229 86.9645 676.237 87.0979 676.215 87.2278C676.192 87.3577 676.14 87.4806 676.062 87.5867C675.984 87.6928 675.882 87.7791 675.765 87.8389C675.647 87.8986 675.518 87.9301 675.386 87.9308H644.618C644.486 87.9305 644.356 87.8992 644.239 87.8396C644.121 87.78 644.019 87.6936 643.941 87.5874C643.863 87.4813 643.811 87.3582 643.788 87.2281C643.766 87.098 643.775 86.9645 643.813 86.8383L659.195 37.1469C659.25 36.9767 659.357 36.8284 659.502 36.7231C659.646 36.6179 659.82 36.5612 659.998 36.5612C660.177 36.5612 660.351 36.6179 660.495 36.7231C660.639 36.8284 660.747 36.9767 660.801 37.1469H660.809Z" fill="white"/>
</svg>

<svg width="736" height="149" viewBox="0 0 736 149" fill="none" xmlns="http://www.w3.org/2000/svg"><path fill-rule="evenodd" clip-rule="evenodd" d="M0 144.827h52.873c51.836 0 74.349-33.516 74.349-72.413C127.222 39.932 112.352 0 52.872 0H0v144.827zm40.48-35.603V35.601a.846.846 0 01.843-.843h3.692c40.06 0 40.48 29.587 40.48 37.656 0 7.448-.413 37.654-40.48 37.654h-3.693a.846.846 0 01-.842-.844zm99.491 35.603h86.741v-34.759h-45.426a.847.847 0 01-.842-.844V87.739a.843.843 0 01.842-.843h41.083V55.035h-41.083a.844.844 0 01-.842-.844v-18.59a.843.843 0 01.842-.843h45.419V0h-86.734v144.827zm100.456 0h40.481V99.903a.845.845 0 011.548-.453l29.016 45.37h48.948L320.563 87.8a.857.857 0 01-.141-.353.856.856 0 01.221-.708.846.846 0 01.317-.21c13.431-4.97 29.332-16.454 29.332-43.08 0-6.622-1.652-43.449-49.98-43.449H240.42l.007 144.827zm40.481-80.497V32.705a.843.843 0 01.84-.842h9.073c14.454 0 19 8.483 19 16.55 0 8.485-4.546 16.76-19 16.76h-9.073a.844.844 0 01-.848-.843h.008zM426.798 149c60.305 0 63.613-47.207 63.613-62.725V0H449.92v85.449c0 8.895-1.651 28.758-23.129 28.758s-23.132-19.863-23.132-28.758V0h-40.481v86.275c0 15.518 3.307 62.725 63.613 62.725h.007zm81.102-4.173h40.473V90.636a.846.846 0 01.84-.844h41.084v-33.31h-41.084a.84.84 0 01-.84-.842V35.601a.846.846 0 01.84-.843h45.42V0h-86.74l.007 144.827zm76.071 0h43.397l7.868-24.45a.829.829 0 01.801-.585h47.927a.829.829 0 01.799.585l7.867 24.45H736L684.576 0h-49.148l-51.457 144.827zm76.838-107.68l15.382 49.691a.856.856 0 01-.129.749.847.847 0 01-.676.344h-30.768a.84.84 0 01-.677-.344.858.858 0 01-.153-.359.857.857 0 01.025-.39l15.382-49.691a.843.843 0 011.606 0h.008z" fill="#fff"/></svg>
